public/img/home/carousel/arrow-next.svg

<svg fill="none" height="30" viewBox="0 0 30 30" width="30" xmlns="http://www.w3.org/2000/svg"><rect height="28" rx="5" stroke="#005bbf" stroke-width="2" width="28" x="1" y="1"/><path d="m22.7071 15.7071c.3905-.3905.3905-1.0237 0-1.4142l-6.364-6.36397c-.3905-.39052-1.0236-.39052-1.4142 0-.3905.39053-.3905 1.02369 0 1.41422l5.6569 5.65685-5.6569 5.6569c-.3905.3905-.3905 1.0236 0 1.4142.3906.3905 1.0237.3905 1.4142 0zm-14.7071.2929h14v-2h-14z" fill="#fff"/></svg>

<svg width="30" height="30" viewBox="0 0 30 30" fill="none" xmlns="http://www.w3.org/2000/svg">
<rect x="1" y="1" width="28" height="28" rx="5" stroke="#005BBF" stroke-width="2"/>
<path d="M22.7071 15.7071C23.0976 15.3166 23.0976 14.6834 22.7071 14.2929L16.3431 7.92893C15.9526 7.53841 15.3195 7.53841 14.9289 7.92893C14.5384 8.31946 14.5384 8.95262 14.9289 9.34315L20.5858 15L14.9289 20.6569C14.5384 21.0474 14.5384 21.6805 14.9289 22.0711C15.3195 22.4616 15.9526 22.4616 16.3431 22.0711L22.7071 15.7071ZM8 16L22 16L22 14L8 14L8 16Z" fill="white"/>
</svg>
